svgs/sharp-light/road-lock.svg

<svg xmlns="http://www.w3.org/2000/svg" viewBox="0 0 640 512"><!--! Font Awesome Pro 6.6.0 by @fontawesome - https://fontawesome.com License - https://fontawesome.com/license (Commercial License) Copyright 2024 Fonticons, Inc. --><path d="M74.4 448L184.1 64 304 64l0 48 0 16 32 0 0-16 0-48 119.9 0 29.8 104.3c9.7-4 20.2-6.6 31.1-7.7L480 32 336 32l-32 0L160 32 41.1 448 32 480l33.3 0L304 480l32 0 48 0 0-32-48 0 0-48 0-16-32 0 0 16 0 48L74.4 448zM336 208l0-16-32 0 0 16 0 96 0 16 32 0 0-16 0-96zm192 16c26.5 0 48 21.5 48 48l0 48-96 0 0-48c0-26.5 21.5-48 48-48zm-80 48l0 48-32 0 0 32 0 128 0 32 32 0 160 0 32 0 0-32 0-128 0-32-32 0 0-48c0-44.2-35.8-80-80-80s-80 35.8-80 80zm0 80l160 0 0 128-160 0 0-128z"/></svg>

<svg xmlns="http://www.w3.org/2000/svg" viewBox="0 0 640 512"><!--! Font Awesome Pro 6.4.2 by @fontawesome - https://fontawesome.com License - https://fontawesome.com/license (Commercial License) Copyright 2023 Fonticons, Inc. --><path d="M74.4 448L184.1 64H304v48 16h32V112 64H455.9l29.8 104.3c9.7-4 20.2-6.6 31.1-7.7L480 32H336 304 160L41.1 448 32 480H65.3 304h32 48l0-32H336V400 384H304v16 48H74.4zM336 208V192H304v16 96 16h32V304 208zm192 16c26.5 0 48 21.5 48 48v48H480V272c0-26.5 21.5-48 48-48zm-80 48v48H416v32V480v32h32H608h32V480 352 320H608V272c0-44.2-35.8-80-80-80s-80 35.8-80 80zm0 80H608V480H448V352z"/></svg>
